X:2
T:Bigamist, The
R:jig
C:Henrik Norbeck
H:For my friend Folke who was going out with two girls at the same time.
H:January 1988.
M:6/8
K:D
d=cA GFE|DFA d2e|fda ged|=cdc A2G|d=cA GFE|DFA d2e|fda ge^c|1 Add d3:|2 Add d2e||
|:fef gfg|agf ede|~A3 def|gfd e3|~f3 agf|gfe fdB|Add ^cde|1 fdd d2e:|2 fdd d3||

